X:0662
T:Struan Robertson's Rant.
M:C|
L:1/8
Q:1/2=104
I: :: ||
N:open-repeat added at the start
Z:Jack Campin * www.campin.me.uk * 2009
K:A Mixolydian
e|:ceAe cAec | Bgdg   BGdB|ceAe cAae|fdgB A/A/A Te2:|
   dega bee(a|Tg)edg  BGdB|dega beeg|fdgB A/A/A Te2 |
   dega bee(a| g>)edg BGdB|dega bgae|fdgB A/A/A Te2|]
<end>
<start>
